X: 9
T: The Swallow's Tail
R: reel
M: 4/4
L: 1/8
K: Gdor
fe|dG (3BAG dG (3BAG|dGBd f2ed|cF (3AGF cF (3AGF|cFAc fcAc|dG (3BAG dG (3BAG|dGBd f2ef|gefd cAFA|B2G2 G2:||:(3def|g2gf d2dc|=Bcde f2ef|cfAf cfAf|F/G/A/B/ c/d/e f2ef|g2gf d2dc|=Bcde f2ef|gefd cAFA|B2G2 G2:|]


Tune 105	Setting 10141

